packages/icons/svg/Device_Laptop_64px.svg

<svg xmlns="http://www.w3.org/2000/svg" viewBox="0 0 64 64"><path d="M57 40h-2V11a2 2 0 00-2-2H11a2 2 0 00-2 2v29H7a2 2 0 00-2 2v3.5a5.51 5.51 0 005.5 5.5h43a5.51 5.51 0 005.5-5.5V42a2 2 0 00-2-2zm-5-28v2H12v-2zm-40 4h40v24H12zm44 29.5a2.5 2.5 0 01-2.5 2.5h-43A2.5 2.5 0 018 45.5V43h13.55A4 4 0 0025 45h14a4 4 0 003.45-2H56z"/></svg>

<svg xmlns="http://www.w3.org/2000/svg" viewBox="0 0 64 64"><defs></defs><g id="Icon"><path  d="M57,40H55V11a2,2,0,0,0-2-2H11a2,2,0,0,0-2,2V40H7a2,2,0,0,0-2,2v3.5A5.51,5.51,0,0,0,10.5,51h43A5.51,5.51,0,0,0,59,45.5V42A2,2,0,0,0,57,40ZM52,12v2H12V12ZM12,16H52V40H12ZM56,45.5A2.5,2.5,0,0,1,53.5,48h-43A2.5,2.5,0,0,1,8,45.5V43H21.55A4,4,0,0,0,25,45H39a4,4,0,0,0,3.45-2H56Z"/></g></svg>
